X: 13161
T: First Of June, The
R: hornpipe
M: 4/4
K: Gmajor
|:Bc|ddcA (3ddd cA|~G2AF G2AG|FAfe dcEF|Ggfe (3ded (3cBA|
ddcA (3ddd cA|Ggfa g2g2|dBGE DDEF|G2g2g2:|
|:ef|(3gag fg eBef|gbfg e2fg|abag fedf|dgfe d2ef|
gafg efdf|gdBG AGEF|GBGE DDEF|G2g2g2:|

